X:733
T:Conol Dodsworth's Short Troop. JBut.729
T:Colonel Dodsworth's Short Troop. JBut.729
N:In the MS the title is given Conol Dosworth's Short Troop.
N:It is likely that Conol is a mispelling of Colonel.
N:Only 15 bars to D part in MS. Changed to match final two bars of C part.
B:John Buttrey MS, poss. Lincolnshire, early 19thC
S:https://buttreymilitarysocialtunes1800.wordpress.com/
Z:vmp.2019.Greg Bradfield-Smith.
M:3/8
L:1/8
Q:3/8=60
K:D
P:A
A,/A,/|DFA|d2 e/c/|dA e/c/|dA A/F/|GG/F/G/A/|FF/A/G/F/|EEE|E2 A,/A,/|
DFA|d2e/c/|dA e/c/|dA d/c/|B/A/B/c/d/B/|A/^G/F/E/F/G/|AAA|A2:|
P:B
|:A,|A,2F/A/|AG D/G/|GF D/F/|FEA,|A,2F/A/|GG/F/G/A/|FF/A/G/F/|E2A,/A,/|
DFA|d2 e/c/|dA e/c/|dA d/c/|B/b/a/g/f/e/|d/c/B/A/B/c/|ddd|d2:|
P:C
|:F/G/|Adc|BAG|F3|GAB|AAA|A/F/B/A/G/F/|F3|E2F/G/|
Adc|BAG|F3|GAB|A/d/c/B/A/G/|FGE|E3|D2:|
P:D
|:E/F/|GEF|GEF|G2E/F/|G2F/G/|AFG|AFG|A2F/G/|A2A/F/|
GGG|F3|E/D/E/F/G/E/|Ddd|d2B|A/B/A/G/F/E/|"NB"E3|D2:|

